archdroid-icon-theme/Archdroid-Blue/apps/scalable/system-file-manager-xubuntu-color.svg

<?xml version="1.0" encoding="UTF-8" standalone="no"?>
<svg
   xmlns:dc="http://purl.org/dc/elements/1.1/"
   xmlns:cc="http://creativecommons.org/ns#"
   xmlns:rdf="http://www.w3.org/1999/02/22-rdf-syntax-ns#"
   xmlns:svg="http://www.w3.org/2000/svg"
   xmlns="http://www.w3.org/2000/svg"
   xmlns:sodipodi="http://sodipodi.sourceforge.net/DTD/sodipodi-0.dtd"
   xmlns:inkscape="http://www.inkscape.org/namespaces/inkscape"
   fill="#2196F3"
   width="48"
   height="48"
   viewBox="0 0 48 48"
   id="svg2"
   version="1.1"
   inkscape:version="0.91 r13725"
   sodipodi:docname="system-file-manager-xubuntu-color.svg">
  <metadata
     id="metadata10">
    <rdf:RDF>
      <cc:Work
         rdf:about="">
        <dc:format>image/svg+xml</dc:format>
        <dc:type
           rdf:resource="http://purl.org/dc/dcmitype/StillImage" />
      </cc:Work>
    </rdf:RDF>
  </metadata>
  <defs
     id="defs8" />
  <sodipodi:namedview
     pagecolor="#ffffff"
     bordercolor="#666666"
     borderopacity="1"
     objecttolerance="10"
     gridtolerance="10"
     guidetolerance="10"
     inkscape:pageopacity="0"
     inkscape:pageshadow="2"
     inkscape:window-width="1366"
     inkscape:window-height="713"
     id="namedview6"
     showgrid="false"
     inkscape:snap-bbox="true"
     inkscape:snap-bbox-edge-midpoints="false"
     inkscape:snap-bbox-midpoints="true"
     inkscape:snap-object-midpoints="true"
     inkscape:zoom="7.766735086990492"
     inkscape:cx="-16.06938063488598"
     inkscape:cy="10.58097769653586"
     inkscape:window-x="0"
     inkscape:window-y="30"
     inkscape:window-maximized="1"
     inkscape:current-layer="svg2"
     inkscape:bbox-nodes="true"
     inkscape:bbox-paths="true" />
  <path
     d="M 20 5 L 16 9 L 16 13 L 8 13 C 5.79 13 4.019531250000001 14.79 4.01953125 17 L 4 39 C 4 41.21 5.790000000000001 43 8 43 L 40 43 C 42.21 43 44 41.21 44 39 L 44 17 C 44 14.79 42.21 13 40 13 L 32 13 L 32 9 L 28 5 L 20 5 z M 20 9 L 28 9 L 28 13 L 20 13 L 20 9 z M 29.251953125 18 A 0.3997159442724798 0.3985480120947521 0 0 0 29.302734375 18.001953125 C 29.3584470401899 17.9986801906623 29.3459134737328 18.000950789071 29.361328125 18.01171875 C 29.37674277626747 18.02248671092911 29.4141743752646 18.0602555599922 29.474609375 18.1328125 C 29.56239260916825 18.23847501282307 29.5905525547721 18.2935651369791 29.607421875 18.384765625 A 0.3997159442724798 0.3985480120947521 0 0 0 29.607421875 18.404296875 C 29.73637902762664 20.38068422787972 29.39016708239041 22.39977750519874 28.904296875 24.322265625 A 0.3997159442724798 0.3985480120947521 0 0 0 28.833984375 24.490234375 C 28.79834371767026 24.71220093796074 28.72097083274491 24.8669400688987 28.599609375 24.951171875 C 28.48746042513885 25.02898615615119 28.4385905664871 25.043651111656 28.40625 25.037109375 C 28.36304145970264 25.02824671278591 28.2902722807408 24.9593564795161 28.232421875 24.884765625 A 0.3997159442724798 0.3985480120947521 0 0 0 28.201171875 24.814453125 C 27.89019191411671 23.67983890189691 28.27768679841648 22.47532134044911 28.3984375 21.29296875 A 0.3997159442724798 0.3985480120947521 0 0 0 28.3984375 21.236328125 C 28.64478024108292 20.15659112741077 28.65048286758139 18.9538592722082 29.1953125 18.03515625 C 29.1834278283418 18.0543576439871 29.2034772488246 18.0296199202742 29.251953125 18 z M 33.720703125 18.93359375 C 33.80103283727647 18.9236261068595 33.9499913734818 19.0222899690386 33.96484375 19.052734375 C 34.0152585675313 19.1557862269878 34.0117893737865 19.20880769451486 33.955078125 19.345703125 A 0.3745178587668918 0.3734235530113792 0 0 0 33.953125 19.353515625 C 33.13311663710579 21.43845022146952 32.13501347047368 23.58332357906534 30.814453125 25.392578125 A 0.3745178587668918 0.3734235530113792 0 0 0 30.8046875 25.40625 C 30.792517732243 25.4244931553701 30.799593098414 25.4474657242503 30.791015625 25.46875 C 30.69226139898342 25.61617001310462 30.45207627821731 25.6994804739864 30.3203125 25.671875 C 30.18056646695299 25.64166918951691 30.045530277875 25.50876489771111 30.041015625 25.2734375 C 30.13862150361581 23.78491219197554 31.06657876037729 22.50774669421248 31.794921875 21.220703125 A 0.3745178587668918 0.3734235530113792 0 0 0 31.8359375 21.111328125 C 32.4143321668056 20.32361207920146 32.84566948859845 19.34315257460675 33.681640625 18.9375 A 0.3745178587668918 0.3734235530113792 0 0 0 33.720703125 18.93359375 z M 20.734375 19.53515625 C 20.86988103979484 19.5104380604647 21.00932024677428 19.5205973163579 21.134765625 19.53515625 C 21.55164927448602 19.56419412314341 21.89610082034068 19.75081707620302 22.138671875 20.03515625 C 22.54680258846377 20.51308924416725 22.73978097391822 21.22135167039255 22.865234375 21.9609375 C 22.98938807339108 22.69745955401134 23.0249699127685 23.48758132613557 23.041015625 24.0859375 L 23.041015625 24.810546875 C 23.04087923644601 24.82798559771431 23.041015625 24.8463359550348 23.041015625 24.859375 C 23.041015625 24.8928125508924 23.0249699127685 24.9318996268566 23.041015625 24.9609375 C 23.05858567989348 24.99149526182041 23.1115020322999 24.9923269022858 23.140625 25.009765625 C 23.16397151129689 25.02424456450131 23.1667760817247 25.031956484364 23.19140625 25.03515625 C 23.23713652985969 25.04971518364221 23.2825945051156 25.0714585604987 23.3671875 25.0859375 C 23.65308197768439 25.13833366228354 24.10910085586818 25.158780536858 24.595703125 25.234375 C 25.56919648608374 25.38534794210358 26.84390328801191 25.66564682971523 28.15625 26.009765625 C 29.46916633477236 26.35402840973842 30.78588471303924 26.82603170456263 31.841796875 27.509765625 C 32.89376179175186 28.19101972706975 33.68232568305909 29.07309254195287 33.845703125 30.259765625 C 33.94897332892178 30.99586371006463 33.38706077286632 31.73558965810871 32.6171875 32.41015625 C 31.84862997553664 33.08370691630199 30.84367755480469 33.71488523572134 29.759765625 34.30859375 C 28.67628692942562 34.90185429708971 27.54802788150943 35.44006171227772 26.650390625 35.859375 C 26.20155193960494 36.06910363858795 25.80275495027576 36.21378566357846 25.498046875 36.359375 C 23.94709239927364 36.98317731008188 22.20129082751196 37.54000736126932 20.357421875 37.91015625 C 20.28449411290797 37.91015625 20.1105434579558 37.953384785138 20.033203125 37.958984375 C 10.64410274988735 38.77026895308807 15.017578125 27.185546875 15.017578125 27.185546875 C 15.01810763350363 27.18554687499999 15.2489358864242 26.63794689483858 15.34375 26.310546875 C 15.3626839404331 26.23639230639403 15.39453125 26.0373319045509 15.39453125 25.9609375 C 15.38145399453135 25.8838231481811 15.3322807449671 25.73995821887141 15.29296875 25.5859375 C 15.20121936746045 25.22058026030868 15.0606437939497 24.77396747796593 14.96875 24.234375 C 14.8783324115756 23.6936066081629 14.8193581108751 23.07388479124428 14.943359375 22.53515625 C 15.0667589249162 22.00457111229838 15.38373664046662 21.49621212056417 15.9453125 21.185546875 C 16.16263562646315 21.0775547847973 16.41285606762375 21.0335413377164 16.623046875 21.0859375 C 16.84081125854954 21.13969356267875 17.06694249200723 21.30051724985731 17.25 21.4609375 C 17.61625942739574 21.78208197802094 17.94577055880529 22.24664320825485 18.2265625 22.759765625 C 18.50632751561193 23.27085619056646 18.7594728700422 23.81602212664961 18.955078125 24.259765625 C 19.053093358166 24.48258930445177 19.1082038520088 24.65898997566796 19.1796875 24.810546875 C 19.211778924463 24.87742197678483 19.235481320466 24.9719283963585 19.255859375 25.009765625 C 19.27342942989339 25.04616295910539 19.255859375 25.04683539457 19.255859375 25.03515625 C 19.2748735439943 25.0657140118204 19.3263457822999 25.0684987772858 19.35546875 25.0859375 C 19.33645458100569 25.0713785663579 19.4177300151749 25.1202866854987 19.48046875 25.134765625 C 19.5725069553597 25.1580439199993 19.6414070242592 25.191146464862 19.73046875 25.185546875 C 19.77567754421222 25.185546875 19.8210783367957 25.1624435977483 19.857421875 25.134765625 C 19.87346758723151 25.134765625 19.8413761627685 25.094656861357 19.857421875 25.0859375 C 19.8866250712614 25.05098006043059 19.90625 25.0533624317856 19.90625 25.009765625 L 19.90625 24.91015625 C 19.86846234769489 24.77780594389588 19.79111249669927 24.58420567554424 19.681640625 24.185546875 C 19.55429382987489 23.72477262405391 19.4371494481144 23.12027339354699 19.35546875 22.53515625 C 19.2737720061734 21.94887119199598 19.23292764568822 21.37634640288422 19.35546875 20.861328125 C 19.47581159173609 20.35794899461535 19.75372040453595 19.92701015864174 20.2578125 19.736328125 C 20.40033853889617 19.68105217364433 20.60018470860814 19.5600344278171 20.734375 19.53515625 z "
     id="path4196"
     style="fill:#0044aa;fill-opacity:1" />
</svg>

<svg xmlns="http://www.w3.org/2000/svg" fill="#2196F3" viewBox="0 0 48 48"><path d="m20 5l-4 4v4h-8c-2.21 0-3.98 1.79-3.98 4l-.02 22c0 2.21 1.79 4 4 4h32c2.21 0 4-1.79 4-4v-22c0-2.21-1.79-4-4-4h-8v-4l-4-4h-8m0 4h8v4h-8v-4m9.251953 9a.399716 .398548 0 0 0 .050781 .001953c.056-.003.043-.001.059.01.015.011.053.049.113.121.088.106.116.161.133.252a.399716 .398548 0 0 0 0 .019531c.129 1.976-.217 3.995-.703 5.918a.399716 .398548 0 0 0 -.070313 .167969c-.036.222-.113.377-.234.461-.112.078-.161.092-.193.086-.043-.009-.116-.078-.174-.152a.399716 .398548 0 0 0 -.03125 -.070313c-.311-1.135.077-2.339.197-3.521a.399716 .398548 0 0 0 0 -.056641c.246-1.08.252-2.282.797-3.201-.012.019.008-.006.057-.035m4.469.934c.08-.01.229.089.244.119.05.103.047.156-.01.293a.374518 .373424 0 0 0 -.001953 .007813c-.82 2.085-1.818 4.23-3.139 6.04a.374518 .373424 0 0 0 -.009766 .013672c-.012.018-.005.041-.014.063-.099.147-.339.231-.471.203-.14-.03-.275-.163-.279-.398.098-1.489 1.026-2.766 1.754-4.053a.374518 .373424 0 0 0 .041016 -.109375c.578-.788 1.01-1.768 1.846-2.174a.374518 .373424 0 0 0 .039063 -.003906m-12.986.602c.136-.025.275-.015.4 0 .417.029.761.216 1 .5.408.478.601 1.186.727 1.926.124.737.16 1.527.176 2.125v.725c0 .017 0 .036 0 .049 0 .033-.016.073 0 .102.018.031.07.031.1.049.023.014.026.022.051.025.046.015.091.036.176.051.286.052.742.073 1.229.148.973.151 2.248.431 3.561.775 1.313.344 2.63.816 3.686 1.5 1.052.681 1.841 1.563 2 2.75.103.736-.459 1.476-1.229 2.15-.769.674-1.774 1.305-2.857 1.898-1.083.593-2.212 1.131-3.109 1.551-.449.21-.848.354-1.152.5-1.551.624-3.297 1.181-5.141 1.551-.073 0-.247.043-.324.049-9.389.811-5.02-10.773-5.02-10.773.001 0 .231-.548.326-.875.019-.074.051-.273.051-.35-.013-.077-.062-.221-.102-.375-.092-.365-.232-.812-.324-1.352-.09-.541-.149-1.16-.025-1.699.123-.531.44-1.039 1-1.35.217-.108.468-.152.678-.1.218.054.444.215.627.375.366.321.696.786.977 1.299.28.511.533 1.056.729 1.5.098.223.153.399.225.551.032.067.056.161.076.199.018.036 0 .037 0 .025.019.031.07.033.1.051-.019-.015.062.034.125.049.092.023.161.056.25.051.045 0 .091-.023.127-.051.016 0-.016-.04 0-.049.029-.035.049-.033.049-.076v-.1c-.038-.132-.115-.326-.225-.725-.127-.461-.244-1.065-.326-1.65-.082-.586-.123-1.159 0-1.674.12-.503.398-.934.902-1.125.143-.055.342-.176.477-.201" fill="#04a"/></svg>
